!!!COM: Scriabin, Alexander
!!!OTL@@FR: Mazurka
!!!OPR@@FR: 10 Mazurkas for piano
!!!OPS: 3
!!!ONM: 8
!!!ODT: 1888–1889
!!!AGN: Mazurka
**kern	**kern	**dynam
*staff2	*staff1	*staff1/2
*Ipiano	*Ipiano	*
*clefF4	*clefG2	*
*k[b-e-a-d-g-]	*k[b-e-a-d-g-]	*
*b-:	*b-:	*
*M3/4	*M3/4	*
8r	8gg-	.
=1	=1	=1
*^	*	*
4FF 4C	4ryy	8bb-L	.
.	.	8aan	.
2G- 2An	4f	8cc	.
.	.	8dd-	.
.	4e-	8ff	.
.	.	8ee-J	.
*v	*v	*	*
=2	=2	=2
4BB-	8.dd-L	.
.	16ccJk	.
4F 4B- 4d- 4f	4b-	.
4B- 4en	4g-	.
=3	=3	=3
4C	8b-L	.
.	8a-	.
4B- 4en	8g-	.
.	8B-	.
4r	8d-	.
.	8cJ	.
=4	=4	=4
4FF	8cL	.
.	8FJ	.
4c 4f 4an	4r	.
4r	4gg-	.
=5	=5	=5
*^	*	*
4FF 4C	4ryy	8bb-L	.
.	.	8aan	.
2G- 2An	4f	8cc	.
.	.	8dd-	.
.	4e-	8ff	.
.	.	8ee-J	.
*v	*v	*	*
=6	=6	=6
4BB-	8.dd-L	.
.	16ccJk	.
4F 4B- 4d- 4f	4b-	.
4Gn 4d- 4f	4gn	.
=7	=7	=7
*	*^	*
4C	8dd-L	4.ryy	.
.	8cc	.	.
4B- 4f	8b-	.	.
.	8d-	[4.d-	.
4C 4B- 4en	8a-	.	.
.	8gnJ	.	.
=8	=8	=8	=8
*^	*	*	*
2FF	4BBn	2A- 2f	4d-]	.
.	4C	.	4c	.
4rc	4rEE	[4ff	4ryy	.
*v	*v	*	*	*
*	*v	*v	*
=9	=9	=9
4DD-	8ffL]	.
.	8ee-	.
4D- 4c-X	8f	.
.	8g-	.
4AA-	8b-	.
.	8a-J	.
=10	=10	=10
4DD-	8ee-L	.
.	8dd-	.
[4c-X	8f	.
.	8g-	.
4D- 4c-]	8e- 8a-	.
.	8e--J 8an	.
=11	=11	=11
*^	*^	*
2GG-	8CnL	2g- 2b-	8e--L	.
.	8D-J	.	8d-	.
.	4D-	.	8d-	.
.	.	.	8dd-	.
8B-L	8B-L	4ryy	8dd-	.
8cJ	8cJ	.	8ee--J	.
=12	=12	=12	=12	=12
8cL	2b-	2gg- 2bb-	8ee--L	.
8d-J	.	.	8dd-	.
4d-	.	.	8dd-	.
.	.	.	8ddd-J	.
4rc	4rEE	8ryy	8ddd-	.
.	.	8ff-X	8ryy	.
*v	*v	*	*	*
*	*v	*v	*
=13	=13	=13
4GG-	8aa-L	.
.	8gg-	.
4f-X	8b-	.
.	8cc-X	.
4G-	8a- 8dd-	.
.	8a--J 8ddn	.
=14	=14	=14
*	*^	*
4C-X	8ee-L	8g-L	.
.	8ff	8anJ	.
4G- 4e- 4g-	8gg-	4ee-	.
.	8ff	.	.
4An 4g- 4an	8ee-	4ryy	.
.	8aJ	.	.
*	*v	*v	*
=15	=15	=15
*^	*	*
4BB-	4ryy	8b-L	.
.	.	8a-XJ	.
8G-L	4e-	4c-X 4cc-X	.
8F	.	.	.
8G-	4c-X	4A- 4dn	.
8FJ	.	.	.
=16	=16	=16	=16
*	*	*^	*
2E-	8c-XL	4.e-	2G-	.
.	8B-J	.	.	.
.	4B-	.	.	.
.	.	8f	.	.
[4Cn	4ryy	8B- 8e- 8g-	4ryy	.
.	.	8gg-	.	.
*	*	*v	*v	*
=17	=17	=17	=17
4FF 4C]	4ryy	8bb-L	.
.	.	8aan	.
2G- 2An	4f	8cc	.
.	.	8dd-	.
.	4e-	8ff	.
.	.	8ee-J	.
*v	*v	*	*
=18	=18	=18
4BB-	8.dd-L	.
.	16ccJk	.
4F 4B- 4d- 4f	4b-	.
4B- 4en	4g-	.
=19	=19	=19
4C	8b-L	.
.	8a-	.
4B- 4en	8g-	.
.	8B-	.
4r	8d-	.
.	8cJ	.
=20	=20	=20
4FF	8cL	.
.	8FJ	.
4c 4f 4an	4r	.
4r	4gg-	.
=21	=21	=21
4FF	8bb-L	.
.	8aan	.
4F 4An 4e- 4f	8cc	.
.	8dd-	.
4r	8ff	.
.	8ee-J	.
=22	=22	=22
4BB-	8.dd-L	.
.	16ccJk	.
4F 4B- 4d- 4f	4b-	.
4G- 4B- 4en	[4g-	.
=23	=23	=23
4C	8g-L]	.
.	8b-	.
4B- 4en	8dd-	.
.	8bb-	.
*clefG2	*	*
4b-	8aa-	.
.	8gg-J	.
=24	=24	=24
4dd-	8ffL	.
.	8eenJ	.
4gg-	4bbb-	.
*clefF4	*	*
4G- 4B- 4en	[4g-	.
=25	=25	=25
4C	8g-L]	.
.	8b-	.
4B- 4en	8dd-	.
.	8bb-	.
*clefG2	*	*
4b-	8aa-	.
.	8gg-J	.
=26	=26	=26
4dd-	8ffL	.
.	8eenJ	.
4gg-	4bbb-	.
4r	4B- 4en	.
*clefF4	*	*
=27	=27	=27
*^	*^	*
2.FF	2C 2F	4f	2An	.
.	.	8cL	.	.
.	.	8fJ	.	.
.	4BB- 4G-	12g-L	4d-	.
.	.	12dd-	.	.
.	.	12g-J	.	.
=28	=28	=28	=28	=28
2.FF	2C 2F	4f	2An	.
.	.	8cL	.	.
.	.	8fJ	.	.
.	4BB- 4G-	12g-L	4d-	.
.	.	12dd-	.	.
.	.	12g-J	.	.
=29	=29	=29	=29	=29
2.FF	2Dn 2Gn	4gn	2Bn	.
.	.	8dnL	.	.
.	.	8gJ	.	.
.	4C 4A-X	12a-XL	4e-	.
.	.	12ee-	.	.
.	.	12a-J	.	.
=30	=30	=30	=30	=30
2.FF	2En 2An	4an	2c#X	.
.	.	8enL	.	.
.	.	8aJ	.	.
.	4Dn 4B-	8b-	4f	.
.	.	8ddn	.	.
*v	*v	*	*	*
=31	=31	=31	=31
4FF	[4ee-X	4rc	.
4.F 4.c	8ee-L]	4.e-X 4.an	.
.	8bnJ	.	.
.	4cc	.	.
8F 8An	.	8e- 8f	.
=32	=32	=32	=32
4r	4.ff	4rc	.
4F 4c	.	4e- 4an	.
.	8gg-	.	.
*clefG2	*	*	*
4g- 4an 4ee-	8fffL	4rc	.
.	8eee-J	.	.
*	*v	*v	*
*clefF4	*	*
=33	=33	=33
4FF	8gg-L 8eee-	.
.	8ff 8ddd-	.
4G- 4An 4e- 4g-	8ff 8ddd-	.
.	8g-J 8ee-	.
4r	4g- 4ee-	.
=34	=34	=34
4BB-	8ee-L 8ccc	.
.	8dd- 8bb-	.
4F 4B- 4d- 4f	8dd- 8bb-	.
.	8fJ 8dd-	.
4r	4f 4dd-	.
=35	=35	=35
*	*^	*
4r	[4ee-	4rc	.
4.F 4.c	8ee-L]	4.e- 4.an	.
.	8bnJ	.	.
.	4cc	.	.
8F 8An	.	8e- 8f	.
=36	=36	=36	=36
4rD	4.ff	4rc	.
4F 4c	.	4e- 4an	.
.	8gg-	.	.
*clefG2	*	*	*
4a- 4bn 4ee-	8fffL	4rc	.
.	8eee-J	.	.
*	*v	*v	*
*clefF4	*	*
=37	=37	=37
4FF	8ffL 8ddd-	.
.	8ee-J 8ccc	.
4G- 4An 4e- 4g-	4aan 4fff	.
4r	8gg-L 8eee-	.
.	8ffJ 8ddd-	.
=38	=38	=38
4BB-	8ee-L 8ccc	.
.	8bbb-J	.
4F 4B- 4d- 4f	4dd- 4bb-	.
4r	4r	.
=39||	=39||	=39||
*^	*	*
4DD-	2.DD-	4r	.
4.GGn	.	4F 4d-	.
.	.	4F 4d- 4a-	.
8AA-	.	.	.
*v	*v	*	*
=40	=40	=40
2F	4r	.
.	4d- 4a-	.
4En	4d- 4gn 4b-	.
=41	=41	=41
2.B-	4r	.
.	4en 4gn 4cc	.
.	4e 4g 4dd-	.
=42	=42	=42
2.B--	4r	.
.	4g-X 4cc 4ddn	.
.	4g- 4cc 4ee-X	.
=43	=43	=43
2A-	4r	.
.	4g- 4cc 4ff	.
4An	4g- 4cc 4ee-	.
=44	=44	=44
2.B-	4d- 4g- 4dd-	.
.	4d- 4g- 4cc	.
.	4d- 4g- 4b-	.
=45	=45	=45
2.E-	4G- 4d- 4a-	.
.	4G- 4d- 4g-	.
.	4G- 4d- 4f	.
=46	=46	=46
2BB--	4G- 4c 4dn	.
.	4G- 4c 4e-	.
4AA-	4G- 4c 4en	.
=47	=47	=47
*^	*	*
4DD-	2.DD-	4r	.
4.GGn	.	4F 4d-X	.
.	.	4F 4d- 4a-	.
8AA-	.	.	.
*v	*v	*	*
=48	=48	=48
2F	4r	.
.	4d- 4a-	.
4En	4d- 4gn 4b-	.
=49	=49	=49
2.B-	4r	.
.	4en 4gn 4cc	.
.	4e 4g 4dd-	.
=50	=50	=50
2.B--	4r	.
.	4g-X 4cc 4ddn	.
.	4g- 4cc 4ee-	.
=51	=51	=51
2A-	4r	.
.	4g- 4cc 4ff	.
4An	4g- 4cc 4ee-	.
=52	=52	=52
2B-	4f 4b- 4ee-	.
.	4f 4b- 4dd-	.
4A-X	4d- 4f 4cc	.
=53	=53	=53
4F	4d- 4a- 4cc	.
4F-X	4d- 4a- 4b-	.
[4E-	4d- 4gn 4cc	.
=54	=54	=54
*	*^	*
2.AA- 2.E-]	4gn	2.c	.
.	4a-	.	.
.	4e-	.	.
*	*v	*v	*
=55	=55	=55
*^	*	*
2.E-	[2.AA-	4r	.
.	.	4c-X 4dn	.
.	.	4c- 4e-	.
=56	=56	=56	=56
2.Dn	2.AA-]	4c-X 4en	.
.	.	4c- 4f	.
.	.	4c- 4f#X	.
=57	=57	=57	=57
*	*	*^	*
4AA-	[2.EE- [2.E-	[2.f#X	4c-X	.
4.BB-	.	.	4.B-	.
8C-X	.	.	8A-	.
=58	=58	=58	=58	=58
4C-X	2.EE-] 2.E-]	4f#]	4A-	.
2BB-	.	4gn	2Gn 2e-	.
.	.	4b-	.	.
*	*	*v	*v	*
=59	=59	=59	=59
2.BB-	[2.EE-	4r	.
.	.	4Gn 4An	.
.	.	4G 4B-	.
=60	=60	=60	=60
2.AAn	2.EE-]	4Gn 4Bn	.
.	.	4G 4c	.
.	.	4G 4c#X	.
*v	*v	*	*
=61	=61	=61
2.BBB- 2.BB-	4F 4B-X 4dn	.
.	4F 4B- 4c#X	.
.	4F 4B- 4d	.
=62	=62	=62
2BBB-- 2BB--	4G-X 4cn 4dn	.
.	4G- 4c 4e-	.
4AAA- 4AA-	4G- 4c 4en	.
=63	=63	=63
*^	*	*
4DD-	2.DD-	4r	.
4.GGn	.	4F 4d-	.
.	.	4F 4d- 4a-	.
8AA-	.	.	.
*v	*v	*	*
=64	=64	=64
2F	4r	.
.	4d- 4a-	.
4En	4d- 4gn 4b-	.
=65	=65	=65
2.B-	4r	.
.	4en 4gn 4cc	.
.	4e 4g 4dd-	.
=66	=66	=66
2.B--	4r	.
.	4g-X 4cc 4ddn	.
.	4g- 4cc 4ee-	.
=67	=67	=67
2A-	4r	.
.	4g- 4cc 4ff	.
4An	4g- 4cc 4ee-	.
=68	=68	=68
2.B-	4d- 4g- 4dd-	.
.	4d- 4g- 4cc	.
.	4dn 4g- 4b-	.
=69	=69	=69
2.E-	4B- 4e- 4a-	.
.	4B- 4e- 4g-	.
.	4B- 4e- 4f	.
=70	=70	=70
[2C	4G- 4B- 4dn	.
.	4G- 4B- 4e-	.
8C]	8G- 8B- 8en	.
8r	8gg-	.
=71	=71	=71
*^	*	*
4FF 4C	4ryy	8bb-L	.
.	.	8aan	.
2G- 2An	4f	8cc	.
.	.	8dd-	.
.	4e-	8ff	.
.	.	8ee-J	.
*v	*v	*	*
=72	=72	=72
4BB-	8.dd-L	.
.	16ccJk	.
4F 4B- 4d- 4f	4b-	.
4B- 4en	4g-	.
=73	=73	=73
4C	8b-L	.
.	8a-	.
4B- 4en	8g-	.
.	8B-	.
4r	8d-	.
.	8cJ	.
=74	=74	=74
4FF	8cL	.
.	8FJ	.
4c 4f 4an	4r	.
4r	4gg-	.
=75	=75	=75
*^	*	*
4FF	4ryy	8bb-L	.
.	.	8aan	.
2F 2An 2e-	4g-	8cc	.
.	.	8dd-	.
.	4f	8ff	.
.	.	8ee-J	.
*v	*v	*	*
=76	=76	=76
4BB-	8.dd-L	.
.	16ccJk	.
4F 4B- 4d- 4f	4b-	.
4Gn 4d- 4f	4gn	.
=77	=77	=77
*	*^	*
4C	8dd-L	4.ryy	.
.	8cc	.	.
4B- 4f	8b-	.	.
.	8d-	[4.d-	.
4C 4B- 4en	8a-	.	.
.	8gnJ	.	.
=78	=78	=78	=78
*^	*	*	*
2FF	4BBn	2A- 2f	4d-]	.
.	4C	.	4c	.
4ryy	4ryy	[4ff	4ryy	.
*v	*v	*	*	*
*	*v	*v	*
=79	=79	=79
4DD-	8ffL]	.
.	8ee-	.
4D- 4c-X	8f	.
.	8g-	.
4AA-	8b-	.
.	8a-J	.
=80	=80	=80
4DD-	8ee-L	.
.	8dd-	.
[4c-X	8f	.
.	8g-	.
4D- 4c-]	8e- 8a-	.
.	8e--J 8an	.
=81	=81	=81
*^	*^	*
2GG-	8CnL	2g- 2b-	8e--L	.
.	8D-J	.	8d-	.
.	4D-	.	8d-	.
.	.	.	8dd-	.
8B-L	8B-L	4ryy	8dd-	.
8cJ	8cJ	.	8ee--J	.
=82	=82	=82	=82	=82
8cL	2b-	2gg- 2bb-	8ee--L	.
8d-J	.	.	8dd-	.
4d-	.	.	8dd-	.
.	.	.	8ddd-J	.
4ryy	4ryy	4ryy	8ddd-	.
.	.	.	8ff-X	.
*v	*v	*	*	*
*	*v	*v	*
=83	=83	=83
4GG-	8aa-L	.
.	8gg-	.
4f-X	8b-	.
.	8cc-X	.
4G-	8a- 8dd-	.
.	8a--J 8ddn	.
=84	=84	=84
*	*^	*
4C-X	8ee-L	8g-L	.
.	8ffn	8anJ	.
4G- 4e- 4g-	8gg-	4ee-	.
.	8ff	.	.
4An 4g- 4an	8ee-	4rc	.
.	8aJ	.	.
*	*v	*v	*
=85	=85	=85
*^	*	*
4BB-	4ryy	8b-L	.
.	.	8a-XJ	.
8G-L	4e-	4c-X 4cc-X	.
8F	.	.	.
8G-	4c-X	4A- 4dn	.
8FJ	.	.	.
=86	=86	=86	=86
*	*	*^	*
2E-	8c-XL	4.e-	2G-	.
.	8B-J	.	.	.
.	4B-	.	.	.
.	.	8f	.	.
4Cn	4ryy	8B- 8e- 8g-	4ryy	.
.	.	8gg-	.	.
*v	*v	*	*	*
*	*v	*v	*
=87	=87	=87
4FF	8bb-L	.
.	8aan	.
4F 4An 4e- 4g-	8cc	.
.	8dd-	.
4r	8ff	.
.	8ee-J	.
=88	=88	=88
4BB-	8.dd-L	.
.	16ccJk	.
4F 4B- 4d- 4f	4b-	.
4B- 4en	4g-	.
=89	=89	=89
4C	8b-L	.
.	8a-	.
4B- 4en	8g-	.
.	8B-	.
4r	8d-	.
.	8cJ	.
=90	=90	=90
4FF	8cL	.
.	8FJ	.
4c 4f 4an	4r	.
4r	4gg-	.
=91	=91	=91
4FF	8bb-L	.
.	8aan	.
4F 4An 4e- 4f	8cc	.
.	8dd-	.
4r	8ff	.
.	8ee-J	.
=92	=92	=92
4BB-	8.dd-L	.
.	16ccJk	.
4F 4B- 4d- 4f	4b-	.
4G- 4B- 4en	[4g-	.
=93	=93	=93
4C	8g-L]	.
.	8b-	.
4B- 4en	8dd-	.
.	8bb-	.
*clefG2	*	*
4b-	8aa-	.
.	8gg-J	.
=94	=94	=94
4dd-	8ffL	.
.	8eenJ	.
4gg-	4bbb-	.
*clefF4	*	*
4G- 4B- 4en	[4g-	.
=95	=95	=95
4C	8g-L]	.
.	8b-	.
4B- 4en	8dd-	.
.	8bb-	.
*clefG2	*	*
4b-	8aa-	.
.	8gg-J	.
=96	=96	=96
4dd-	8ffL	.
.	8eenJ	.
4gg-	4bbb-	.
4r	4B- 4en	.
*clefF4	*	*
=97	=97	=97
*^	*^	*
2.FF	2C 2F	4f	2An	.
.	.	8cL	.	.
.	.	8fJ	.	.
.	4BB- 4G-	12g-L	4d-	.
.	.	12dd-	.	.
.	.	12g-J	.	.
=98	=98	=98	=98	=98
2.FF	2C 2F	4f	2An	.
.	.	8cL	.	.
.	.	8fJ	.	.
.	4BB- 4G-	12g-L	4d-	.
.	.	12dd-	.	.
.	.	12g-J	.	.
=99	=99	=99	=99	=99
2.FF	2Dn 2Gn	4gn	2Bn	.
.	.	8dnL	.	.
.	.	8gJ	.	.
.	4C 4A-X	12a-L	4e-	.
.	.	12ee-	.	.
.	.	12a-J	.	.
=100	=100	=100	=100	=100
2.FF	2En 2An	4an	2c#X	.
.	.	8enL	.	.
.	.	8aJ	.	.
.	4Dn 4B-	8b-	4f	.
.	.	8ddn	.	.
*v	*v	*	*	*
=101	=101	=101	=101
4FF	[4ee-X	4rc	.
4.F 4.c	8ee-L]	4.e-X 4.an	.
.	8bnJ	.	.
.	4cc	.	.
8F 8An	.	8e- 8f	.
=102	=102	=102	=102
4r	4.ff	4rc	.
4F 4c	.	4e- 4an	.
.	8gg-	.	.
*clefG2	*	*	*
4g- 4an 4ee-	8fffL	4rc	.
.	8eee-J	.	.
*	*v	*v	*
*clefF4	*	*
=103	=103	=103
4FF	8gg-L 8eee-	.
.	8ff 8ddd-	.
4G- 4An 4e- 4g-	8ff 8ddd-	.
.	8g-J 8ee-	.
4r	4g- 4ee-	.
=104	=104	=104
4BB-	8ee-L 8ccc	.
.	8dd- 8bb-	.
4F 4B- 4d- 4f	8dd- 8bb-	.
.	8fJ 8dd-	.
4r	4f 4dd-	.
=105	=105	=105
*	*^	*
4r	4.ee-	4rc	.
4.F 4.c	.	4.e- 4.an	.
.	8bn	.	.
.	4cc	.	.
8F 8An	.	8e- 8f	.
=106	=106	=106	=106
4rD	4.ff	4rc	.
4F 4c	.	4e-X 4an	.
.	8gg-	.	.
*clefG2	*	*	*
4a- 4bn 4ee-	8fffL	4rc	.
.	8eee-J	.	.
*	*v	*v	*
*clefF4	*	*
=107	=107	=107
4FF	8ffL 8ddd-	.
.	8ee-J 8ccc	.
4G- 4An 4e- 4g-	4aan 4fff	.
4r	8gg-L 8eee-	.
.	8ffJ 8ddd-	.
=108	=108	=108
4BB-	8ee-L 8ccc	.
.	8bbb-J	.
4F 4B- 4d- 4f	4dd- 4bb-	.
[4BBB- [4BB-	8r	.
.	8ddn 8bb-	.
=109	=109	=109
*^	*	*
4BBB-] 4BB-]	4ryy	8ddnL 8bb-	.
.	.	8ee-J 8ccc-X	.
4G- 4g-	2B-	4.a- 4.dd	.
4F 4f	.	.	.
.	.	8f 8dd	.
=110	=110	=110	=110
4BBB- 4BB-	4ryy	8fL 8ddn	.
.	.	8g-J 8ee-	.
4d-X	[2BB- [2G-	4.e- 4.g-	.
4c-X	.	.	.
.	.	8e- 8g-	.
=111	=111	=111	=111
*	*	*^	*
4B-	2.BB-_ 2.G-]	4g-	8e-L	.
.	.	.	8d-X	.
2An	.	4rdd	8cn	.
.	.	.	8dn	.
.	.	4rdd	8f	.
.	.	.	8e-J	.
*	*	*v	*v	*
=112	=112	=112	=112
2B-	2BB-] 2F	8dnL	.
.	.	8cJ	.
.	.	4B-	.
[4BBB- [4BB-	4rEE	8r	.
.	.	8ddn 8bb-	.
=113	=113	=113	=113
4BBB-] 4BB-]	4ryy	8ddnL 8bb-	.
.	.	8ee-J 8ccc-X	.
4G- 4g-	2B-	4.a- 4.dd	.
4F 4f	.	.	.
.	.	8f 8dd	.
=114	=114	=114	=114
4BBB- 4BB-	4ryy	8fL 8ddn	.
.	.	8g-J 8ee-	.
4d-X	[2BB- [2G-	4.e- 4.g-	.
4c-X	.	.	.
.	.	8e- 8g-	.
=115	=115	=115	=115
*	*	*^	*
4B-	2.BB-_ 2.G-_	4g-	8e-L	.
.	.	.	8d-X	.
[2An	.	4rdd	8cn	.
.	.	.	8dn	.
.	.	4rdd	8f	.
.	.	.	8e-J	.
*v	*v	*	*	*
*	*v	*v	*
=116	=116	=116
2.BB-] 2.G-] 2.A]	2.e-	.
=117	=117	=117
[2.BBB- [2.FF [2.BB-	[2.Dn [2.F [2.B- [2.dn	.
=118	=118	=118
2.BBB-] 2.FF] 2.BB-]	2.D] 2.F] 2.B-] 2.d]	.
==	==	==
*-	*-	*-
!!!system-decoration: {(*)}
!!!ENC: Bryan Jacob Bell
!!!END: November 2021 to April 2022
!!!PED: Günter Philipp
!!!PTL: Ausgewählte Klavierwerke (Edition Peters)
